X:360
T:Irish Bourree. (p)1696.PLFD.360
M:4/4
L:1/4
Q:1/2=100
S:Playford, Dancing Master,9th Ed,1st Supp.,1696.
O:England
H:1696.
Z:Chris Partington
K:F
e|f>ed^c|d(e/f/) g/a/g/f/|e3e|f>ed^c|
de/f/ g/f/e/d/|d3:||:A|F>EFG|AG/F/ A/B/c|
E3A|F>EFG|A(G/F/) (G/F/)(E/D/)|D3:|
